fs/clipboard_task_add_24_filled.svg

<svg viewBox="0 0 24 24" fill="none" xmlns="http://www.w3.org/2000/svg" height="1em" width="1em">
  <path d="M11.75 2H8.25C7.09205 2 6.13841 2.87472 6.01379 3.99944L4.25 4C3.00736 4 2 5.00736 2 6.25V19.75C2 20.9926 3.00736 22 4.25 22H12.8096C11.6888 20.8321 11 19.2465 11 17.5C11 16.2553 11.3498 15.0924 11.9565 14.1041L9.53033 16.5303C9.23744 16.8232 8.76256 16.8232 8.46967 16.5303L5.96967 14.0303C5.67678 13.7374 5.67678 13.2626 5.96967 12.9697C6.26256 12.6768 6.73744 12.6768 7.03033 12.9697L9 14.9393L13.9697 9.96967C14.2626 9.67678 14.7374 9.67678 15.0303 9.96967C15.3232 10.2626 15.3232 10.7374 15.0303 11.0303L14.1041 11.9565C15.0924 11.3498 16.2553 11 17.5 11C17.6682 11 17.835 11.0064 18 11.0189V6.25C18 5.00736 16.9926 4 15.75 4L13.9862 3.99944C13.8616 2.87472 12.9079 2 11.75 2ZM8.25 3.5H11.75C12.1642 3.5 12.5 3.83579 12.5 4.25C12.5 4.66421 12.1642 5 11.75 5H8.25C7.83579 5 7.5 4.66421 7.5 4.25C7.5 3.83579 7.83579 3.5 8.25 3.5ZM23 17.5C23 14.4624 20.5376 12 17.5 12C14.4624 12 12 14.4624 12 17.5C12 20.5376 14.4624 23 17.5 23C20.5376 23 23 20.5376 23 17.5ZM18.0006 18L18.0011 20.5035C18.0011 20.7797 17.7773 21.0035 17.5011 21.0035C17.225 21.0035 17.0011 20.7797 17.0011 20.5035L17.0006 18H14.4956C14.2197 18 13.9961 17.7762 13.9961 17.5C13.9961 17.2239 14.2197 17 14.4956 17H17.0005L17 14.4993C17 14.2231 17.2239 13.9993 17.5 13.9993C17.7761 13.9993 18 14.2231 18 14.4993L18.0005 17H20.4966C20.7725 17 20.9961 17.2239 20.9961 17.5C20.9961 17.7762 20.7725 18 20.4966 18H18.0006Z" fill="#212121"/>
</svg>

<svg viewBox="0 0 24 24" fill="none" xmlns="http://www.w3.org/2000/svg" height="1em" width="1em">
  <path d="M11.75 2h-3.5a2.25 2.25 0 0 0-2.236 2H4.25A2.25 2.25 0 0 0 2 6.25v13.5A2.25 2.25 0 0 0 4.25 22h8.56A6.478 6.478 0 0 1 11 17.5c0-1.245.35-2.408.957-3.396L9.53 16.53a.75.75 0 0 1-1.06 0l-2.5-2.5a.75.75 0 1 1 1.06-1.06L9 14.94l4.97-4.97a.75.75 0 1 1 1.06 1.06l-.926.927A6.47 6.47 0 0 1 18 11.018V6.25A2.25 2.25 0 0 0 15.75 4h-1.764a2.25 2.25 0 0 0-2.236-2Zm-3.5 1.5h3.5a.75.75 0 0 1 0 1.5h-3.5a.75.75 0 0 1 0-1.5ZM23 17.5a5.5 5.5 0 1 0-11 0 5.5 5.5 0 0 0 11 0Zm-5 .5.001 2.503a.5.5 0 1 1-1 0V18h-2.505a.5.5 0 0 1 0-1H17v-2.5a.5.5 0 1 1 1 0V17h2.497a.5.5 0 0 1 0 1H18Z" fill="#212121"/>
</svg>
